public/assets/svg/title.svg

<svg width="92" height="14" viewBox="0 0 92 14" fill="none" xmlns="http://www.w3.org/2000/svg">
<path d="M2.26239 9.05747L2.22839 9.04517C1.97752 8.95439 1.64124 8.79091 1.40159 8.49666L2.17696 7.86515L1.40158 8.49665C1.27211 8.33768 1.13141 8.08962 1.12051 7.76669C1.10891 7.42265 1.24944 7.13375 1.43536 6.93334C1.74795 6.59639 2.17743 6.50482 2.42213 6.47399C2.71808 6.43671 3.03285 6.45393 3.32309 6.50863L3.36646 6.51681L3.40894 6.52877C13.8168 9.45957 21.5858 10.0442 28.0532 9.48832C34.435 8.93984 39.5959 7.27944 44.8865 5.57736L45.1262 5.50026C50.4922 3.77422 56.0025 2.02588 62.9151 1.49933C69.8345 0.972276 78.1089 1.6711 89.0588 4.75719L89.0699 4.76033L89.0699 4.76039C89.3602 4.84587 89.7398 5.00648 90.0117 5.30685L90.0117 5.30688C90.157 5.4674 90.3319 5.73789 90.3405 6.10382C90.3495 6.48478 90.1748 6.78556 89.9721 6.97944C89.7837 7.16367 89.5672 7.25849 89.408 7.30965M2.26239 9.05747L89.408 7.30965M2.26239 9.05747L2.29718 9.06729C13.3369 12.1814 21.6288 12.887 28.5304 12.355C35.4262 11.8233 40.8824 10.058 46.1946 8.31639L46.4222 8.24177C51.6623 6.52345 56.7727 4.84766 63.1426 4.29534C69.5937 3.73598 77.3864 4.32725 87.8955 7.28728M2.26239 9.05747L87.8955 7.28728M89.408 7.30965C89.2324 7.36608 89.0532 7.39276 88.8885 7.40256L88.8291 6.40432M89.408 7.30965L88.8291 6.40432M88.8291 6.40432L88.8885 7.40256C88.7206 7.41254 88.5496 7.40605 88.3835 7.3863C88.2193 7.36678 88.0542 7.33365 87.8955 7.28728M88.8291 6.40432L87.8955 7.28728M88.7882 5.71719L88.7884 5.71995L88.7882 5.71716L88.7882 5.71707L88.7703 5.41512L88.7882 5.7171L88.7882 5.71719Z" fill="#F7AF24" stroke="#F7AF24" stroke-width="2"/>
</svg>

<?xml version="1.0" encoding="utf-8"?>
<!-- Generator: Adobe Illustrator 27.7.0, SVG Export Plug-In . SVG Version: 6.00 Build 0)  -->
<svg version="1.1" id="Layer_1" xmlns="http://www.w3.org/2000/svg" xmlns:xlink="http://www.w3.org/1999/xlink" x="0px" y="0px"
	 viewBox="0 0 92 14" style="enable-background:new 0 0 92 14;" xml:space="preserve">
<style type="text/css">
	.st0{fill:#02AC64;stroke:#02AC64;stroke-width:2;}
</style>
<path class="st0" d="M2.3,9.1L2.3,9.1C2,9,1.6,8.8,1.4,8.5l0.8-0.6L1.4,8.5C1.3,8.3,1.1,8.1,1.1,7.8c0-0.3,0.1-0.6,0.3-0.8
	c0.3-0.3,0.7-0.4,1-0.5c0.3,0,0.6,0,0.9,0l0,0l0,0c10.4,2.9,18.2,3.5,24.6,3c6.4-0.5,11.5-2.2,16.8-3.9l0.2-0.1
	C50.5,3.8,56,2,62.9,1.5C69.8,1,78.1,1.7,89.1,4.8l0,0v0C89.4,4.8,89.7,5,90,5.3v0c0.1,0.2,0.3,0.4,0.3,0.8c0,0.4-0.2,0.7-0.4,0.9
	c-0.2,0.2-0.4,0.3-0.6,0.3 M2.3,9.1l87.1-1.7 M2.3,9.1L2.3,9.1c11.1,3.1,19.4,3.8,26.3,3.3c6.9-0.5,12.4-2.3,17.7-4l0.2-0.1
	c5.2-1.7,10.4-3.4,16.7-3.9c6.5-0.6,14.2,0,24.8,3 M2.3,9.1l85.6-1.8 M89.4,7.3c-0.2,0.1-0.4,0.1-0.5,0.1l-0.1-1 M89.4,7.3l-0.6-0.9
	 M88.8,6.4l0.1,1c-0.2,0-0.3,0-0.5,0c-0.2,0-0.3-0.1-0.5-0.1 M88.8,6.4l-0.9,0.9 M88.8,5.7L88.8,5.7L88.8,5.7L88.8,5.7l0-0.3
	L88.8,5.7L88.8,5.7z"/>
</svg>
